X:183
T:The Diligent
C:Feuillet / John Essex, 1710
L:1/8
M:6/8
Q:3/8=112
S:For the further improvement of dancing
K:D
P:A
|:D | "D"FED "A7"ABc | "Bm"dcB "G"eBd | "E7"^GAB "A"E2A | "E7"AB^G "A7"A2 :|
P:B
|: f/g/ | "D"aga "Bm"def | "Em"gfg "A7"cde | "D"fef "G"Bcd | "E7"ede "A"A2d | "A7"dec "D"d2 :|

